!!!COM:	Josquin des Prez
!!!CDT:	~1450-1521/08/27
!!!OTL@@FRE:	Nimphes, nappes
!!!AGN:	Chanson
!!!SCT:	NJE 30.6
!!!SCA:	New Josquin Edition 30.6
!!!voices:	6
**kern	**kern	**kern	**kern	**kern	**kern
*staff6	*staff5	*staff4	*staff3	*staff2	*staff1
*Ivox	*Ivox	*Ivox	*Ivox	*Ivox	*Ivox
*I"Bassus	*I"Tenor	*I"Quintus	*I"Contratenor	*I"Sextus	*I"Superius
*I'B	*I'T	*I'Q	*I'Ct	*I'Sx	*I'S
*clefF4	*clefGv2	*clefGv2	*clefGv2	*clefGv2	*clefG2
*k[b-]	*k[b-]	*k[b-]	*k[b-]	*k[b-]	*k[b-]
*M2/1	*M2/1	*M2/1	*M2/1	*M2/1	*M2/1
*met(C|)	*met(C|)	*met(C|)	*met(C|)	*met(C|)	*met(C|)
=1-	=1-	=1-	=1-	=1-	=1-
!	!	!LO:TX:Z=6:t=Canon at the upper fifth	!	!	!
0r	0F	0r	0r	0r	0f
=2	=2	=2	=2	=2	=2
0r	1G	0r	0B-	0r	1d
.	1G	.	.	.	1d
=3	=3	=3	=3	=3	=3
0C	2.E/	0r	1G	0r	1.e
.	4C/	.	.	.	.
.	1C	.	1G	.	.
.	.	.	.	.	2c/
=4	=4	=4	=4	=4	=4
1AA	1r	0r	1.A	0r	0c
1AA	1F	.	.	.	.
.	.	.	2F/	.	.
=5	=5	=5	=5	=5	=5
0BB-	1F	0r	0F	0r	1r
.	1D	.	.	.	1d
=6	=6	=6	=6	=6	=6
0GG	1G	0r	1r	0r	1d
.	1G	.	1G	.	1d
=7	=7	=7	=7	=7	=7
0C	2.E/	0r	1G	0r	1e
.	4C/	.	.	.	.
.	1C	.	1G	.	1e
=8	=8	=8	=8	=8	=8
1AA	0r	0r	1A	0r	1.c
1AA	.	.	1A	.	.
.	.	.	.	.	2A/
=9	=9	=9	=9	=9	=9
1D	1r	0r	1.F	0r	0A
1D	1F	.	.	.	.
.	.	.	2D/	.	.
=10	=10	=10	=10	=10	=10
1.BB-	1F	0r	0D	0r	0d
.	1D	.	.	.	.
2GG/	.	.	.	.	.
=11	=11	=11	=11	=11	=11
0GG	1G	0r	1r	0r	1d
.	1G	.	1G	.	1d
=12	=12	=12	=12	=12	=12
0r	1.E	0r	1G	0r	0g
.	.	.	1G	.	.
.	2C/	.	.	.	.
=13	=13	=13	=13	=13	=13
1r	0C	0r	0c	0r	0e
1C	.	.	.	.	.
=14	=14	=14	=14	=14	=14
1C	1c	0r	1r	0r	1e
1C	1c	.	1c	.	1e
=15	=15	=15	=15	=15	=15
0F	2.A/	0r	1c	0r	0a
.	4F/	.	.	.	.
.	1F	.	1c	.	.
=16	=16	=16	=16	=16	=16
1r	2r	0r	0f	0r	1r
.	2F/	.	.	.	.
1F	2A/	.	.	.	1a
.	2F/	.	.	.	.
=17	=17	=17	=17	=17	=17
1F	2.A/	0F	1r	0r	1a
.	4B-\	.	.	.	.
2F\	1c	.	1F	.	1a
[2F\	.	.	.	.	.
=18	=18	=18	=18	=18	=18
4F\]	0r	1F	2.A/	0r	1f
4E\	.	.	.	.	.
4D\	.	.	.	.	.
4C/	.	.	4F/	.	.
2D\	.	1F	2.A/	.	1f
2D\	.	.	.	.	.
.	.	.	4B-\	.	.
=19	=19	=19	=19	=19	=19
0C	1r	0G	0c	0r	0e
.	1G	.	.	.	.
=20	=20	=20	=20	=20	=20
1r	2A/	0F	1r	0c	0r
.	2A/	.	.	.	.
1FF	2F/	.	1A	.	.
.	2F/	.	.	.	.
=21	=21	=21	=21	=21	=21
1C	0E	[0G	2G/	1c	0r
.	.	.	2E/	.	.
1C	.	.	[1G	1c	.
=22	=22	=22	=22	=22	=22
1BB-	0r	0G]	2G/]	0d	0r
.	.	.	2F/	.	.
1BB-	.	.	1D	.	.
=23	=23	=23	=23	=23	=23
1AA	0r	[0A	0E	0c	1r
1AA	.	.	.	.	1e
=24	=24	=24	=24	=24	=24
1.D	1r	0A]	1r	[0d	1f
.	1F	.	1D	.	2f/
2D\	.	.	.	.	[2f/
=25	=25	=25	=25	=25	=25
1D	2F/	0r	1.A	0d]	4f/]
.	.	.	.	.	4e/
.	2F/	.	.	.	4d/
.	.	.	.	.	4c/
1D	2F/	.	.	.	2d/
.	2F/	.	2A/	.	2d/
=26	=26	=26	=26	=26	=26
[0AA	0E	[0A	1A	[0e	[0c
.	.	.	1A	.	.
=27	=27	=27	=27	=27	=27
0AA]	0r	1A]	0E	0e]	0c]
.	.	1A	.	.	.
=28	=28	=28	=28	=28	=28
1r	1G	0B-	1r	0r	0r
1GG	1G	.	1G	.	.
=29	=29	=29	=29	=29	=29
0C	2.E/	[0G	1G	[0e	0g
.	4C/	.	.	.	.
.	1C	.	2.E/	.	.
.	.	.	4C/	.	.
=30	=30	=30	=30	=30	=30
0C	2r	0G]	1C	1e]	1g
.	2c\	.	.	.	.
.	1c	.	1r	1e	1g
=31	=31	=31	=31	=31	=31
1FF	2.A/	[0F	1C	0f	1a
.	4F/	.	.	.	.
1FF	1F	.	1F	.	1a
=32	=32	=32	=32	=32	=32
1.BB-	1F	0F_	1F	[0d	1f
.	[1B-	.	[1D	.	1f
2BB-/	.	.	.	.	.
=33	=33	=33	=33	=33	=33
1BB-	2B-\]	0F]	2D/]	0d]	1.f
.	2B-\	.	2BB-/	.	.
1BB-	2B-\	.	2.D/	.	.
.	2B-\	.	.	.	2g/
.	.	.	4E/	.	.
=34	=34	=34	=34	=34	=34
0FF	0A	0r	0F	[0c	0a
=35	=35	=35	=35	=35	=35
0F	1r	0r	1r	0c_	1r
.	1f	.	1F	.	1a
=36	=36	=36	=36	=36	=36
1F	1f	0r	1A	0c]	1a
1F	1f	.	2.A/	.	1a
.	.	.	4B-\	.	.
=37	=37	=37	=37	=37	=37
0C	[0e	0r	[0c	0r	0g
=38	=38	=38	=38	=38	=38
1r	0e]	0r	0c]	0r	1g
1C	.	.	.	.	[1cc
=39	=39	=39	=39	=39	=39
1.F	0r	0r	1r	0r	2cc\]
.	.	.	.	.	2b-\
.	.	.	1F	.	2a/
2E\	.	.	.	.	2g/
=40	=40	=40	=40	=40	=40
2D\	0r	0r	1F	0r	2f/
2C/	.	.	.	.	2e/
1BB-	.	.	1G	.	1d
=41	=41	=41	=41	=41	=41
2AA/	1r	0r	0A	0r	0c
2FF/	.	.	.	.	.
[1F	1c	.	.	.	.
=42	=42	=42	=42	=42	=42
2F\]	1.f	0r	1r	0r	0r
2E\	.	.	.	.	.
2D\	.	.	1F	.	.
2C/	2e\	.	.	.	.
=43	=43	=43	=43	=43	=43
2BB-/	2d\	0r	1F	0r	1r
2AA/	2c\	.	.	.	.
1GG	1B-	.	1G	.	1g
=44	=44	=44	=44	=44	=44
0FF	0A	0F	2.A/	0r	1.cc
.	.	.	4B-\	.	.
.	.	.	2c\	.	.
.	.	.	[2d\	.	2b-\
=45	=45	=45	=45	=45	=45
0r	1F	1F	4d\]	0r	2.a/
.	.	.	4c\	.	.
.	.	.	1c	.	.
.	.	.	.	.	4g/
.	1F	1D	.	.	1f
.	.	.	2Bni\	.	.
=46	=46	=46	=46	=46	=46
0r	1G	1C	0c	0r	1e
.	[1A	[1F	.	.	1c
=47	=47	=47	=47	=47	=47
1r	2A/]	1F]	0r	0c	1.cc
.	2F/	.	.	.	.
1F	2.A/	1F	.	.	.
.	.	.	.	.	2b-\
.	4B-\	.	.	.	.
=48	=48	=48	=48	=48	=48
1F	0c	0r	1r	1c	2.a/
.	.	.	.	.	4g/
1F	.	.	1c	1A	1f
=49	=49	=49	=49	=49	=49
0C	1r	1r	1c	1G	1e
!! Quintus: E- is based on article by Patrick Macey: An Expressive Detail
!! in Josquin's 'Nymphes, napp&eacute;s' (Early Music, August 2003).
!! All Four early prints and two manuscript sources notate E-flat explicitly.
.	1C	1E-	1c	[1c	2r
.	.	.	.	.	2g/
=50	=50	=50	=50	=50	=50
1r	2.F/	1F	1A	1c]	1a
.	4G/	.	.	.	.
1FF	1A	1F	1A	1c	1a
=51	=51	=51	=51	=51	=51
1BB-	1D	0F	1d	0r	1f
1BB-	2r	.	1d	.	1f
.	2D/	.	.	.	.
=52	=52	=52	=52	=52	=52
1GG	1G	[0G	1G	1r	1b-
1GG	1G	.	2G/	1B-	1b-
.	.	.	[2g\	.	.
=53	=53	=53	=53	=53	=53
0C	1C	0G]	4g\]	1c	1g
.	.	.	4f\	.	.
.	.	.	4e\	.	.
.	.	.	4d\	.	.
.	1C	.	2.e\	1c	1g
.	.	.	4d\	.	.
=54	=54	=54	=54	=54	=54
1FF	1.F	[0F	0f	0c	1.a
2r	.	.	.	.	.
2FF/	2D/	.	.	.	2f/
=55	=55	=55	=55	=55	=55
1BB-	1D	0F]	2r	[0d	1f
.	.	.	2F/	.	.
1BB-	2r	.	1B-	.	2r
.	2D/	.	.	.	2f/
=56	=56	=56	=56	=56	=56
1GG	1G	0r	1B-	0d]	1b-
2r	1G	.	1G	.	1b-
2GG/	.	.	.	.	.
=57	=57	=57	=57	=57	=57
1C	1E	1r	2r	[0c	1g
.	.	.	2G/	.	.
!! Quintus: E- is based on article by Patrick Macey: An Expressive Detail
!! in Josquin's 'Nymphes, napp&eacute;s' (Early Music, August 2003)
!! All Four early prints and two manuscript sources notate E-flat explicitly.
1C	1C	1E-	1c	.	1g
=58	=58	=58	=58	=58	=58
1FF	2.F/	1F	1c	0c]	1.a
.	4G/	.	.	.	.
1FF	1A	1F	1F	.	.
.	.	.	.	.	2f/
=59	=59	=59	=59	=59	=59
0BB-	1D	0F	1F	0r	1f
.	1r	.	[1B-	.	2r
.	.	.	.	.	2f/
=60	=60	=60	=60	=60	=60
1GG	1D	[0G	2B-\]	1r	1b-
.	.	.	2G/	.	.
2r	1G	.	2G/	1B-	1b-
2GG/	.	.	[2g\	.	.
=61	=61	=61	=61	=61	=61
1C	1G	0G]	4g\]	1c	1g
.	.	.	4f\	.	.
.	.	.	4e\	.	.
.	.	.	4d\	.	.
1C	1C	.	2.e\	1c	1g
.	.	.	4d\	.	.
=62	=62	=62	=62	=62	=62
1FF	1C	[0Fl	0f	0c	1.a
1FF	[1F	.	.	.	.
.	.	.	.	.	2f/
=63	=63	=63	=63	=63	=63
[0BB-	2F/]	0F_	2r	[0d	[0fl
.	2D/	.	2f\	.	.
.	1D	.	2.f\	.	.
.	.	.	4e\	.	.
=64	=64	=64	=64	=64	=64
0BB-]	2r	0F_	2.d\	0d]	0f_
.	2D/	.	.	.	.
.	.	.	4c\	.	.
.	2D/	.	1B-	.	.
.	2D/	.	.	.	.
=65	=65	=65	=65	=65	=65
[0FFl	2F/	0F_	[0Al	[0cl	0f_
.	2C/	.	.	.	.
.	2.F/	.	.	.	.
.	4E/	.	.	.	.
=66	=66	=66	=66	=66	=66
0FF]	0Cl	0F]	0A]	0c]	0f]
==	==	==	==	==	==
*-	*-	*-	*-	*-	*-
!!!RDF**kern: l=long note in original notation
!!!RDF**kern: i=editorial accidental
!!!ENC:	Will Watson 19/08/2011
!!!END:	2011/08/19/
!!!EED:	Jesse Rodin
!!!EEV:	2012/05/23/
!!attribution-level@Jos: 1 (secure)
!!!ONB:	Translated from MusicXML and edited on 2011/09/20/ by Craig Sapp
!!muse2ps: C^@{COM}\n@{SCT}^i2I150v85,85,85,85,85,130Q16
